X: 16
T: Blarney Pilgrim, The
Z: Juan Gomez-Perales
S: https://thesession.org/tunes/5#setting52802
R: jig
M: 6/8
L: 1/8
K: Dmix
|:DED DEG|A2A ABc|BAG AGE|GEA GED|
DED DEG|A2A ABc|BAG AGE|GED D3:|
|:ded dBG|AGA BGE|ded dBG|AGA B2 d|
g2e dBG|AGA BGE|B2G AGE|GED D3:|
|:A2D B2D|A2D ABc|BAG AGE|GEA GED|
ADD BDD|ADD ABc|BAG AGE|GED D3:|

